**kern	**kern	**dynam
*part1	*part1	*part1
*staff2	*staff1	*
*I"Piano	*	*
*clefF4	*clefG2	*
*k[b-e-a-]	*k[b-e-a-]	*
=1	=1	=1
*	*^	*
*	*	*^	*
4AAAn	(12E-L	[4E-	12ryy	p
.	12c	.	[6c\	.
.	[12e-J)	.	.	.
2AAn 2G	2e-]	2E-]	2c/]	.
=	=	=	=	=
4BBB-	(12A-XL	[4A-	12ryy	.
.	12d	.	[6d\	.
.	[12a-XJ)	.	.	.
2BB- 2F	2a-]	2A-]	2d/]	.
=	=	=	=	=
4EEE- 4EE-	12GL	[4G	12ryy	.
.	12e-	.	[6e-\	.
.	[12gJ	.	.	.
(4BB- 4B-	4g]	4G]	4e-/]	.
4GG 4G	12B-L	[4B-	12ryy	.
.	12g	.	[6g\	.
.	[12b-J	.	.	.
=	=	=	=	=
4EE- 4E-	4b-]	4B-]	4g/]	.
4BBB- 4BB-	12e-L	[4e-	12ryy	.
.	12g	.	[6g\	.
.	[12ee-J	.	.	.
4GGG 4GG	4ee-]	4e-]	4g\]	.
*	*v	*v	*v	*
=	=	=
*^	*	*
2.EEE-) 2.EE-	4ryy	2.g 2.b- 2.ee- 2.gg	.
.	4ryy	.	.
.	8ryy	.	.
.	16ryy	.	.
.	16ryy	.	.
*v	*v	*	*
=	=	=
2.EE- 2.BB- 2.E-	2.G 2.B- 2.e-	.
=	=	=
*	*^	*
2.EEE-; 2.EE-	2.G; 2.B- 2.e-	2.E-<	.
*	*v	*v	*
==	==	==
*-	*-	*-
!!!system-decoration: {(s1,s2)}
!!!RDF**kern: < = below
